X:292
T:Ken Meyer's Reel
M:4/4
L:1/8
C:Frederick E. Wilson
K:CMaj
"A"A2eA dA^c2|"Gm"A_B^cA _BAG_B|"A"A2eA dA^c2|"Gm"^cdef ed^c_B|
"A"A2eA dA^c2|"Gm"A_B^cA _BAG_B|"A"A_B^cd efed|"Gm"^c_BAG"A"A4:|
"A"(e8|e8)||:a8|e8|
^cdef ed^c_B|"Gm"ed^c_B"A"A4|"A"^cdefg2fe|1"Gm"f2ed ed^c_B||
"A"(A8|e8):|2"Gm"f2ed ed^c_B:|
